src/images/icons/xml.svg

<svg xmlns="http://www.w3.org/2000/svg" xmlns:svg="http://www.w3.org/2000/svg" id="svg4" width="50" height="50" version="1.1"><path id="path2" d="M 5.63125,24.543364 0.50234375,17.91602 H 6.1328125 l 2.3570313,3.849219 2.3125002,-3.849219 h 5.325781 l -4.998438,6.666407 5.565625,7.5 h -5.783593 l -2.6625003,-4.226562 -2.75,4.226562 H 0 Z M 17.604687,17.91602 h 6.83125 l 2.226563,8.333594 h 0.04375 l 2.226562,-8.333594 h 6.831251 V 32.083209 H 31.225 V 22.995708 H 31.18125 L 28.475,32.083209 H 24.895312 L 22.1875,22.995708 h -0.04375 v 9.087501 h -4.539063 z m 20.696875,0 h 4.801563 V 28.45274 H 50 v 3.63125 H 38.301563 Z" style="stroke-width:.78125"/></svg>

<svg xmlns="http://www.w3.org/2000/svg" id="svg4" width="50" height="50" version="1.1">
  <path id="path2" d="M5.631 24.543.502 17.916h5.63l2.358 3.85 2.312-3.85h5.326l-4.998 6.666 5.565 7.5h-5.783l-2.663-4.226-2.75 4.226H0Zm11.974-6.627h6.83l2.228 8.334h.043l2.227-8.334h6.831v14.167h-4.539v-9.087h-.044l-2.706 9.087h-3.58l-2.707-9.087h-.044v9.087h-4.54zm20.697 0h4.801v10.537H50v3.631H38.302Z" style="stroke-width:.78125"/>
</svg>
